X: 2131
Q: "Reel."
M: C
L: 1/8
K: G
uc |:\
{ef}g2(dB) GBdB | {ef}g2(dB) gbaf |\
{ef}g2(dB) GBd_B | A=fcf A=FcA :|
|:\
(B/c/d) (gd) (B/c/d) (gd) | (B/c/d) (gd) BGG_B |\
[1 (A/_B/c) (=fc) A/B/c (fc) | (A/_B/c) (=fc) A=FFc :|\
[2 =fgag fgfd | cA=fc A=FF |]
uc |\
(B/c/d) (Gd) BdGd | BdGd BGG_B |\
(A/_B/c) (=Fc) AcFc | Ac=Fc AFFc |\
(B/c/d) (Gd) BdGd | BdGd BGGe |\
=fgag fgfd | cA=fc A=FF |]


